img/icons/svg/color/auto.svg

<svg xmlns="http://www.w3.org/2000/svg" width="32" height="32" viewBox="0 0 32 32">
  <g fill="none" fill-rule="evenodd">
    <circle cx="16" cy="16" r="16" fill="#FAB431"/>
    <path fill="#FFF" d="M24.5,19.2673835 L20.3153846,16.7555556 L20.7948718,14.767492 L22.5820513,15.8222222 L22.5820513,12.1886369 L16.8418761,8.76704233 L16.8418761,16.6666667 L15.4769231,17.4222222 L23.0151183,21.8918 L16,26 L7.5,21.0222222 L7.5,11.0666667 L16,6 L24.5,11.0666667 L24.5,19.2673835 Z M9.41794872,12.1886369 L9.41794872,18.6666667 L14.9358072,15.4666667 L14.9358072,8.89956049 L9.41794872,12.1886369 Z M13.5153846,18.5333333 L10.3770677,20.4519313 L16,23.7448381 L19.1746935,21.8856712 L13.5153846,18.5333333 Z"/>
  </g>
</svg>

<svg xmlns="http://www.w3.org/2000/svg" width="32" height="32" viewBox="0 0 32 32"><g fill="none" fill-rule="evenodd"><circle cx="16" cy="16" r="16" fill="#FAB431"/><path fill="#FFF" d="M24.5 19.267l-4.185-2.511.48-1.989 1.787 1.055V12.19l-5.74-3.422v7.9l-1.365.755 7.538 4.47L16 26l-8.5-4.978v-9.955L16 6l8.5 5.067v8.2zM9.418 12.19v6.478l5.518-3.2V8.9l-5.518 3.289zm4.097 6.344l-3.138 1.919L16 23.745l3.175-1.86-5.66-3.352z"/></g></svg>
